X:1
T:Title
%%score { 1 | ( 2 3 ) }
L:1/8
Q:1/4=108
M:4/4
K:G
V:1 treble nm="Grand Piano"
V:2 treble 
V:3 treble 
V:1
 B2 B2 B2 d2 | G2 G2 G4 | [FA]2 [FA]2 [FA][GB] [Ac]2 | [Bd]3 c B4 | B2 B2 B2 d2 | G2 G2 G4 | %6
w: John~R.~Sweney * * *||||||
 [FA]2 [GB]2 .[Fd]2 [DFA]2 | [CFA]4 [B,G]2 z2 | [FA]2 [FA]2 [FA]2 [GB]2 | [Fd]3 [Fc] [FA]4 | %10
w: ||||
 B2 B2 B2 c2 | e3 d B4 | d2 e2 d2 B2 | G2 G2 G4 | [FA]2 [GB]2 .[Fd]2 [DFA]2 | [CFA]4 [B,DG]2 z2 |] %16
w: ||||||
V:2
 [G,DG]2 [G,DG]2 [G,DG]2 [G,B,G]2 | [G,B,D]2[K:bass] [G,CE]2 [G,B,D]4 | %2
 [D,D]2 [D,D]2 [D,D]2 [D,D]2 | z2 z A [G,DG]4 | [G,DG]2 [G,DG]2 [G,DG]2 [G,B,G]2 | %5
 [G,B,D]2 [G,CE]2 [G,D]4 | [D,D]2 [D,D]2 z[K:treble] c[K:bass] D,2 | D,4 G,2 z2 | %8
 [D,D]2 [D,D]2 [D,D]2 [D,D]2 | [D,A,]3 [D,D] [D,D]4 | [G,DG]2 [G,DG]2 [G,DG]2 [G,DA]2 | %11
 [G,CG]3 [G,B,G] [G,DG]4 | [G,B,G]2 [G,CG]2 [G,B,G]2 [G,DG]2 | [G,B,D]2 [G,CE]2 [G,D]4 | %14
 [D,D]2 [D,D]2 z[K:treble] c[K:bass] D,2 | D,4 G,2 z2 |] %16
V:3
 x8 | x2[K:bass] x6 | x8 | [G,D]4 z4 | x8 | x8 | z4 [D,A,]2[K:treble][K:bass] z2 | x8 | x8 | x8 | %10
 x8 | x8 | x8 | x8 | z4 [D,A,]2[K:treble][K:bass] z2 | x8 |] %16

